style/svgs/types/currency.svg

<?xml version="1.0" encoding="UTF-8"?>
<svg width="100px" height="100px" viewBox="0 0 100 100" version="1.1" xmlns="http://www.w3.org/2000/svg" xmlns:xlink="http://www.w3.org/1999/xlink">
    <title>Artboard Copy 290</title>
    <g id="Artboard-Copy-290" stroke="none" stroke-width="1" fill="none" fill-rule="evenodd">
        <path d="M51,99 C57.5568627,99 63.7294118,97.745098 69.5176471,95.2352941 C75.3058824,92.7254902 80.4117647,89.2588235 84.8352941,84.8352941 C89.2588235,80.4117647 92.7254902,75.3058824 95.2352941,69.5176471 C97.745098,63.7294118 99,57.5568627 99,51 C99,44.4431373 97.745098,38.2705882 95.2352941,32.4823529 C92.7254902,26.6941176 89.2588235,21.5882353 84.8352941,17.1647059 C80.4117647,12.7411765 75.2980392,9.2745098 69.4941176,6.76470588 C63.6901961,4.25490196 57.5098039,3 50.9529412,3 C44.3960784,3 38.2235294,4.25490196 32.4352941,6.76470588 C26.6470588,9.2745098 21.5490196,12.7411765 17.1411765,17.1647059 C12.7333333,21.5882353 9.2745098,26.6941176 6.76470588,32.4823529 C4.25490196,38.2705882 3,44.4431373 3,51 C3,57.5568627 4.25490196,63.7294118 6.76470588,69.5176471 C9.2745098,75.3058824 12.7411765,80.4117647 17.1647059,84.8352941 C21.5882353,89.2588235 26.6941176,92.7254902 32.4823529,95.2352941 C38.2705882,97.745098 44.4431373,99 51,99 Z M51,91 C45.4470588,91 40.254902,89.9647059 35.4235294,87.8941176 C30.5921569,85.8235294 26.3490196,82.9607843 22.6941176,79.3058824 C19.0392157,75.6509804 16.1843137,71.4078431 14.1294118,66.5764706 C12.0745098,61.745098 11.0470588,56.5529412 11.0470588,51 C11.0470588,45.4470588 12.0745098,40.254902 14.1294118,35.4235294 C16.1843137,30.5921569 19.0313725,26.3411765 22.6705882,22.6705882 C26.3098039,19 30.545098,16.1372549 35.3764706,14.0823529 C40.2078431,12.027451 45.4,11 50.9529412,11 C56.5058824,11 61.6980392,12.027451 66.5294118,14.0823529 C71.3607843,16.1372549 75.6117647,19 79.2823529,22.6705882 C82.9529412,26.3411765 85.8235294,30.5921569 87.8941176,35.4235294 C89.9647059,40.254902 91,45.4470588 91,51 C91,56.5529412 89.972549,61.745098 87.9176471,66.5764706 C85.8627451,71.4078431 83.0078431,75.6509804 79.3529412,79.3058824 C75.6980392,82.9607843 71.4470588,85.8235294 66.6,87.8941176 C61.7529412,89.9647059 56.5529412,91 51,91 Z M50.9529412,77.9176471 C51.5803922,77.9176471 52.1058824,77.7137255 52.5294118,77.3058824 C52.9529412,76.8980392 53.1647059,76.3647059 53.1647059,75.7058824 L53.1647059,72.4117647 C56.8352941,72.0352941 59.9176471,70.8196078 62.4117647,68.7647059 C64.9058824,66.7098039 66.1529412,63.9098039 66.1529412,60.3647059 C66.1529412,57.1647059 65.1176471,54.5921569 63.0470588,52.6470588 C60.9764706,50.7019608 57.9019608,49.3686275 53.8235294,48.6470588 L53.1647059,48.5058824 L53.1647059,35.3764706 C54.8588235,35.6901961 56.2784314,36.3411765 57.4235294,37.3294118 C58.5686275,38.3176471 59.3764706,39.5960784 59.8470588,41.1647059 C60.3803922,42.7019608 61.3372549,43.4705882 62.7176471,43.4705882 C63.5333333,43.4705882 64.2,43.2117647 64.7176471,42.6941176 C65.2352941,42.1764706 65.4941176,41.5098039 65.4941176,40.6941176 C65.4941176,40.4431373 65.4705882,40.2 65.4235294,39.9647059 C65.3764706,39.7294118 65.3215686,39.4862745 65.2588235,39.2352941 C64.6313725,36.6941176 63.2117647,34.6 61,32.9529412 C58.7882353,31.3058824 56.1764706,30.3098039 53.1647059,29.9647059 L53.1647059,26.7176471 C53.1647059,26.0588235 52.9529412,25.5254902 52.5294118,25.1176471 C52.1058824,24.7098039 51.5803922,24.5058824 50.9529412,24.5058824 C49.4784314,24.5058824 48.7411765,25.2431373 48.7411765,26.7176471 L48.7411765,29.9647059 C45.1647059,30.372549 42.2313725,31.6196078 39.9411765,33.7058824 C37.6509804,35.7921569 36.5058824,38.4352941 36.5058824,41.6352941 C36.5058824,44.6156863 37.5098039,47.0313725 39.5176471,48.8823529 C41.5254902,50.7333333 44.4901961,52.1137255 48.4117647,53.0235294 L48.7411765,53.1176471 L48.7411765,67.0470588 C46.6078431,66.7333333 44.9215686,66.027451 43.6823529,64.9294118 C42.4431373,63.8313725 41.6352941,62.4980392 41.2588235,60.9294118 C40.9764706,60.145098 40.5921569,59.5568627 40.1058824,59.1647059 C39.6196078,58.772549 39.0313725,58.5764706 38.3411765,58.5764706 C37.5568627,58.5764706 36.9058824,58.8352941 36.3882353,59.3529412 C35.8705882,59.8705882 35.6117647,60.5372549 35.6117647,61.3529412 C35.6117647,61.6039216 35.6352941,61.8470588 35.6823529,62.0823529 C35.7294118,62.3176471 35.7843137,62.5607843 35.8470588,62.8117647 C36.5058824,65.5411765 38.027451,67.7294118 40.4117647,69.3764706 C42.7960784,71.0235294 45.572549,72.0039216 48.7411765,72.3176471 L48.7411765,75.7058824 C48.7411765,76.3647059 48.9529412,76.8980392 49.3764706,77.3058824 C49.8,77.7137255 50.3254902,77.9176471 50.9529412,77.9176471 Z M48.7411765,47.3294118 L48.4117647,47.2352941 C46.3098039,46.6078431 44.7647059,45.8156863 43.7764706,44.8588235 C42.7882353,43.9019608 42.2941176,42.7333333 42.2941176,41.3529412 C42.2941176,39.9098039 42.8666667,38.6392157 44.0117647,37.5411765 C45.1568627,36.4431373 46.7333333,35.7215686 48.7411765,35.3764706 L48.7411765,47.3294118 Z M53.1647059,67.0470588 L53.1647059,54.2470588 L54.2,54.4823529 C56.4588235,55.1098039 58.0431373,55.9254902 58.9529412,56.9294118 C59.8627451,57.9333333 60.3176471,59.1882353 60.3176471,60.6941176 C60.3176471,62.3568627 59.7294118,63.7607843 58.5529412,64.9058824 C57.3764706,66.0509804 55.5803922,66.7647059 53.1647059,67.0470588 Z" id="􀖗" fill="#3E3E3E" fill-rule="nonzero"></path>
    </g>
</svg>

<svg width="100" height="100" xmlns="http://www.w3.org/2000/svg"><path d="M51 99c6.557 0 12.73-1.255 18.518-3.765 5.788-2.51 10.894-5.976 15.317-10.4 4.424-4.423 7.89-9.53 10.4-15.317C97.745 63.729 99 57.557 99 51s-1.255-12.73-3.765-18.518c-2.51-5.788-5.976-10.894-10.4-15.317-4.423-4.424-9.537-7.89-15.34-10.4C63.69 4.255 57.51 3 50.952 3c-6.557 0-12.73 1.255-18.518 3.765-5.788 2.51-10.886 5.976-15.294 10.4-4.408 4.423-7.866 9.53-10.376 15.317C4.255 38.271 3 44.443 3 51s1.255 12.73 3.765 18.518c2.51 5.788 5.976 10.894 10.4 15.317 4.423 4.424 9.53 7.89 15.317 10.4C38.271 97.745 44.443 99 51 99Zm0-8c-5.553 0-10.745-1.035-15.576-3.106-4.832-2.07-9.075-4.933-12.73-8.588-3.655-3.655-6.51-7.898-8.565-12.73-2.054-4.83-3.082-10.023-3.082-15.576 0-5.553 1.028-10.745 3.082-15.576 2.055-4.832 4.902-9.083 8.542-12.753 3.639-3.671 7.874-6.534 12.705-8.589C40.208 12.027 45.4 11 50.953 11c5.553 0 10.745 1.027 15.576 3.082 4.832 2.055 9.083 4.918 12.753 8.589 3.67 3.67 6.542 7.921 8.612 12.753C89.964 40.254 91 45.447 91 51c0 5.553-1.027 10.745-3.082 15.576-2.055 4.832-4.91 9.075-8.565 12.73-3.655 3.655-7.906 6.518-12.753 8.588C61.753 89.964 56.553 91 51 91Zm-.047-13.082c.627 0 1.153-.204 1.576-.612.424-.408.636-.941.636-1.6v-3.294c3.67-.377 6.753-1.592 9.247-3.647 2.494-2.055 3.74-4.855 3.74-8.4 0-3.2-1.034-5.773-3.105-7.718-2.07-1.945-5.145-3.278-9.223-4l-.66-.141v-13.13c1.695.314 3.114.965 4.26 1.953 1.145.989 1.952 2.267 2.423 3.836.533 1.537 1.49 2.306 2.87 2.306.816 0 1.483-.26 2-.777.518-.518.777-1.184.777-2a3.71 3.71 0 0 0-.07-.73 15.731 15.731 0 0 0-.165-.729c-.628-2.54-2.047-4.635-4.259-6.282-2.212-1.647-4.824-2.643-7.835-2.988v-3.247c0-.66-.212-1.193-.636-1.6-.423-.408-.949-.612-1.576-.612-1.475 0-2.212.737-2.212 2.212v3.247c-3.576.408-6.51 1.655-8.8 3.74-2.29 2.087-3.435 4.73-3.435 7.93 0 2.98 1.004 5.396 3.012 7.247 2.007 1.851 4.972 3.232 8.894 4.142l.33.094v13.93c-2.134-.315-3.82-1.02-5.06-2.119-1.239-1.098-2.047-2.431-2.423-4-.283-.784-.667-1.372-1.153-1.764-.486-.392-1.075-.589-1.765-.589-.784 0-1.435.26-1.953.777-.517.518-.776 1.184-.776 2 0 .25.023.494.07.73.047.235.102.478.165.729.659 2.73 2.18 4.917 4.565 6.564 2.384 1.648 5.16 2.628 8.33 2.942v3.388c0 .659.21 1.192.634 1.6.424.408.95.612 1.577.612ZM48.74 47.329l-.33-.094c-2.101-.627-3.646-1.42-4.635-2.376-.988-.957-1.482-2.126-1.482-3.506 0-1.443.573-2.714 1.718-3.812 1.145-1.098 2.721-1.82 4.73-2.165V47.33Zm4.424 19.718v-12.8l1.035.235c2.259.628 3.843 1.443 4.753 2.447.91 1.004 1.365 2.26 1.365 3.765 0 1.663-.589 3.067-1.765 4.212-1.177 1.145-2.973 1.859-5.388 2.141Z" fill="#3E3E3E" fill-rule="nonzero"/></svg>
